; generated by PrusaSlicer 2.2.0 on 2020-07-14 at 05:21:38 UTC

; 

; external perimeters extrusion width = 0.45mm
; perimeters extrusion width = 0.45mm
; infill extrusion width = 0.45mm
; solid infill extrusion width = 0.45mm
; top infill extrusion width = 0.40mm
; first layer extrusion width = 0.42mm

M73 P0 R108
M73 Q0 S109
M201 X1000 Y1000 Z200 E5000 ; sets maximum accelerations, mm/sec^2
M203 X200 Y200 Z12 E120 ; sets maximum feedrates, mm/sec
M204 P1250 R1250 T1250 ; sets acceleration (P, T) and retract acceleration (R), mm/sec^2
M205 X8.00 Y8.00 Z0.40 E4.50 ; sets the jerk limits, mm/sec
M205 S0 T0 ; sets the minimum extruding and travel feed rate, mm/sec
M107
M862.3 P "MK3S" ; printer model check
M862.1 P0.4 ; nozzle diameter check
M115 U3.9.0 ; tell printer latest fw version
G90 ; use absolute coordinates
M83 ; extruder relative mode
M104 S215 ; set extruder temp
M140 S60 ; set bed temp
M190 S60 ; wait for bed temp
M109 S215 ; wait for extruder temp
G28 W ; home all without mesh bed level
G80 ; mesh bed leveling
G1 Y-3.0 F1000.0 ; go outside print area
G92 E0.0
G1 X60.0 E9.0 F1000.0 ; intro line
M73 Q0 S108
M73 P0 R108
G1 X100.0 E12.5 F1000.0 ; intro line
G92 E0.0
M221 S95
G21 ; set units to millimeters
G90 ; use absolute coordinates
M83 ; use relative distances for extrusion
M900 K0.06 ; Filament gcode LA 1.5
M900 K30 ; Filament gcode LA 1.0
;BEFORE_LAYER_CHANGE
G92 E0.0
;0.2


G1 E-0.80000 F2100.00000
G1 Z0.600 F10800.000
;AFTER_LAYER_CHANGE
;0.2
G1 X145.765 Y101.546
G1 Z0.200
G1 E0.80000 F2100.00000
M204 S1000
G1 F1200.000
G1 X144.750 Y101.748 E0.03246
G1 X132.708 Y101.748 E0.37756
G1 X131.999 Y101.650 E0.02243
G1 X131.294 Y101.346 E0.02409
G1 X130.310 Y100.620 E0.03833
G1 X129.603 Y99.994 E0.02960
G1 X128.569 Y98.894 E0.04734
G1 X127.499 Y97.422 E0.05706
G1 X126.423 Y95.308 E0.07437
G1 X125.871 Y93.600 E0.05629
G1 X125.589 Y92.122 E0.04718
G1 X125.500 Y91.216 E0.02855
G1 X125.475 Y90.305 E0.02855
G1 X125.569 Y88.804 E0.04718
G1 X125.902 Y87.044 E0.05616
G1 X126.705 Y84.807 E0.07450
G1 X127.582 Y83.213 E0.05706
G1 X128.466 Y81.996 E0.04718
G1 X129.066 Y81.310 E0.02855
G1 X129.712 Y80.669 E0.02855
G1 X130.871 Y79.710 E0.04718
G1 X132.410 Y78.733 E0.05712
G1 X133.772 Y78.091 E0.04723
G1 X134.623 Y77.781 E0.02839
G1 X135.503 Y77.528 E0.02872
G1 X136.978 Y77.246 E0.04708
G1 X138.732 Y77.129 E0.05510
G1 X140.381 Y77.232 E0.05180
G1 X141.948 Y77.527 E0.05000
G1 X142.906 Y77.806 E0.03127
G1 X144.441 Y78.424 E0.05190
G1 X145.837 Y79.196 E0.05001
G1 X147.176 Y80.170 E0.05193
G1 X148.384 Y81.304 E0.05193
G1 X149.400 Y82.525 E0.04982
G1 X149.961 Y83.351 E0.03129
G1 X150.752 Y84.809 E0.05201
G1 X151.335 Y86.293 E0.05001
G1 X151.747 Y87.895 E0.05185
G1 X151.956 Y89.545 E0.05214
G1 X151.960 Y91.133 E0.04980
G1 X151.866 Y92.125 E0.03125
G1 X151.554 Y93.722 E0.05103
G1 X151.081 Y95.185 E0.04821
G1 X150.718 Y96.033 E0.02891
G1 X149.964 Y97.411 E0.04924
G1 X149.441 Y98.187 E0.02937
G1 X148.446 Y99.395 E0.04906
G1 X147.774 Y100.070 E0.02984
G1 X146.535 Y101.094 E0.05043
G1 X145.817 Y101.515 E0.02610
G1 X145.626 Y101.192 F10800.000
G1 F1200.000
G1 X144.743 Y101.370 E0.02827
G1 X132.713 Y101.371 E0.37718
G1 X132.089 Y101.284 E0.01977
G1 X131.474 Y101.013 E0.02107
G1 X130.535 Y100.317 E0.03664
G1 X129.863 Y99.722 E0.02814
G1 X128.842 Y98.634 E0.04679
G1 X127.821 Y97.226 E0.05451
G1 X126.768 Y95.154 E0.07290
G1 X126.239 Y93.517 E0.05392
G1 X125.876 Y91.190 E0.07385
G1 X125.945 Y88.839 E0.07374
G1 X126.269 Y87.131 E0.05451
G1 X127.050 Y84.958 E0.07242
G1 X127.897 Y83.421 E0.05501
G1 X129.342 Y81.567 E0.07371
G1 X131.102 Y80.008 E0.07373
G1 X132.581 Y79.069 E0.05493
G1 X134.742 Y78.138 E0.07375
G1 X137.038 Y77.618 E0.07381
G1 X138.733 Y77.506 E0.05329
G1 X140.336 Y77.607 E0.05035
G1 X141.865 Y77.895 E0.04879
G1 X143.399 Y78.384 E0.05046
G1 X144.274 Y78.762 E0.02990
G1 X145.632 Y79.513 E0.04868
G1 X146.937 Y80.462 E0.05058
G1 X148.111 Y81.564 E0.05047
G1 X149.102 Y82.756 E0.04862
G1 X149.972 Y84.108 E0.05040
G1 X150.408 Y84.963 E0.03008
G1 X150.976 Y86.407 E0.04867
G1 X151.377 Y87.968 E0.05051
G1 X151.579 Y89.567 E0.05054
G1 X151.583 Y91.121 E0.04872
G1 X151.494 Y92.066 E0.02978
G1 X151.187 Y93.635 E0.05010
G1 X150.726 Y95.057 E0.04689
G1 X150.378 Y95.870 E0.02773
G1 X149.640 Y97.219 E0.04820
G1 X149.140 Y97.960 E0.02803
G1 X148.163 Y99.145 E0.04817
G1 X147.525 Y99.787 E0.02836
G1 X146.320 Y100.784 E0.04905
G1 X145.678 Y101.162 E0.02335
G1 F8640.000
G1 X144.743 Y101.370 E-0.22132
G1 X142.410 Y101.371 E-0.53868
G1 E-0.04000 F2100.00000
G1 Z0.800 F10800.000
G1 X133.941 Y97.101
G1 Z0.200
G1 E0.80000 F2100.00000
G1 F1200.000
G1 X133.200 Y97.107 E0.02324
G1 X131.848 Y97.226 E0.04254
G1 X131.858 Y97.264 E0.00126
G1 X131.244 Y96.573 E0.02900
G1 X130.870 Y96.092 E0.01910
G1 X130.528 Y95.587 E0.01913
G1 X130.216 Y95.061 E0.01917
G1 X129.940 Y94.518 E0.01910
G1 X129.697 Y93.958 E0.01913
G1 X129.587 Y93.650 E0.01028
G1 X130.723 Y93.669 E0.03563
G1 X135.441 Y93.670 E0.14793
G1 X135.441 Y94.096 E0.01336
G1 X133.941 Y94.096 E0.04703
G1 X133.941 Y97.041 E0.09233
G1 F8640.000
G1 X133.200 Y97.107 E-0.17179
G1 X131.848 Y97.226 E-0.31331
G1 X131.858 Y97.264 E-0.00929
G1 X131.244 Y96.573 E-0.21360
G1 X131.106 Y96.395 E-0.05201
G1 E-0.04000 F2100.00000
G1 Z0.800 F10800.000
G1 X129.583 Y87.117
G1 Z0.200
G1 E0.80000 F2100.00000
G1 F1200.000
G1 X129.940 Y86.248 E0.02945
G1 X130.217 Y85.704 E0.01914
G1 X130.527 Y85.179 E0.01913
G1 X130.870 Y84.674 E0.01913
G1 X131.244 Y84.192 E0.01913
G1 X131.648 Y83.734 E0.01913
G1 X132.079 Y83.303 E0.01913
G1 X132.537 Y82.899 E0.01913
G1 X133.019 Y82.525 E0.01913
G1 X133.524 Y82.182 E0.01913
G1 X134.049 Y81.872 E0.01913
G1 X134.593 Y81.595 E0.01913
G1 X135.153 Y81.353 E0.01913
G1 X135.727 Y81.146 E0.01913
G1 X136.313 Y80.976 E0.01913
G1 X136.908 Y80.843 E0.01913
G1 X137.510 Y80.747 E0.01910
G1 X138.118 Y80.690 E0.01917
G1 X138.729 Y80.671 E0.01917
G1 X139.338 Y80.690 E0.01909
G1 X139.945 Y80.747 E0.01913
G1 X140.548 Y80.843 E0.01913
G1 X141.143 Y80.976 E0.01913
G1 X141.729 Y81.146 E0.01913
G1 X142.303 Y81.353 E0.01913
G1 X142.863 Y81.595 E0.01913
G1 X143.407 Y81.872 E0.01913
G1 X143.932 Y82.182 E0.01913
G1 X144.437 Y82.525 E0.01913
G1 X144.919 Y82.899 E0.01913
G1 X145.377 Y83.303 E0.01913
G1 X145.808 Y83.734 E0.01913
G1 X146.212 Y84.192 E0.01913
G1 X146.586 Y84.674 E0.01913
G1 X146.929 Y85.179 E0.01913
G1 X147.239 Y85.704 E0.01913
G1 X147.516 Y86.248 E0.01914
G1 X147.759 Y86.808 E0.01913
G1 X147.869 Y87.117 E0.01029
G1 X145.731 Y87.096 E0.06706
G1 X131.224 Y87.096 E0.45484
G1 X129.643 Y87.116 E0.04959
G1 F8640.000
G1 X129.940 Y86.248 E-0.21186
G1 X130.217 Y85.704 E-0.14093
G1 X130.527 Y85.179 E-0.14089
G1 X130.870 Y84.674 E-0.14089
G1 X131.203 Y84.245 E-0.12544
G1 E-0.04000 F2100.00000
G1 Z0.800 F10800.000
G1 X142.015 Y93.670
G1 Z0.200
G1 E0.80000 F2100.00000
G1 F1200.000
G1 X146.733 Y93.669 E0.14793
G1 X147.873 Y93.650 E0.03575
G1 X147.516 Y94.518 E0.02944
G1 X147.239 Y95.062 E0.01914
G1 X146.929 Y95.587 E0.01913
G1 X146.586 Y96.092 E0.01913
G1 X146.210 Y96.576 E0.01920
G1 X145.591 Y97.288 E0.02959
G1 X145.608 Y97.226 E0.00203
G1 X144.256 Y97.107 E0.04255
G1 X143.515 Y97.101 E0.02324
G1 X143.515 Y94.096 E0.09422
G1 X142.015 Y94.096 E0.04703
G1 X142.015 Y93.730 E0.01147
G1 F8640.000
G1 X145.306 Y93.687 E-0.76000
G1 E-0.04000 F2100.00000
G1 Z0.800 F10800.000
G1 X145.129 Y97.562
G1 Z0.200
G1 E0.80000 F2100.00000
G1 F1200.000
G1 X144.238 Y97.484 E0.02803
G1 X143.138 Y97.475 E0.03449
G1 X143.138 Y94.473 E0.09412
G1 X141.638 Y94.473 E0.04703
G1 X141.638 Y93.293 E0.03700
G1 X146.730 Y93.292 E0.15965
G1 X148.115 Y93.268 E0.04343
G1 X148.138 Y90.883 E0.07478
G1 X148.115 Y87.496 E0.10620
G1 X145.729 Y87.473 E0.07483
G1 X131.227 Y87.473 E0.45471
G1 X129.341 Y87.497 E0.05912
G1 X129.318 Y89.883 E0.07481
G1 X129.341 Y93.268 E0.10616
G1 X130.726 Y93.292 E0.04345
G1 X135.818 Y93.293 E0.15965
G1 X135.818 Y94.473 E0.03700
G1 X134.318 Y94.473 E0.04703
G1 X134.318 Y97.475 E0.09412
G1 X133.218 Y97.484 E0.03449
G1 X132.327 Y97.562 E0.02803
G1 X132.518 Y98.281 E0.02332
G1 X132.518 Y98.582 E0.00945
G1 X132.188 Y98.326 E0.01310
G1 X131.813 Y97.804 E0.02016
G1 X130.953 Y96.814 E0.04110
G1 X130.565 Y96.314 E0.01987
G1 X130.209 Y95.789 E0.01987
G1 X129.886 Y95.243 E0.01991
G1 X129.598 Y94.679 E0.01984
G1 X129.346 Y94.097 E0.01989
G1 X129.026 Y93.202 E0.02982
G1 X128.816 Y92.275 E0.02979
G1 X128.718 Y91.648 E0.01990
G1 X128.658 Y91.017 E0.01988
G1 X128.638 Y90.383 E0.01987
G1 X128.658 Y89.749 E0.01987
G1 X128.718 Y89.118 E0.01988
G1 X128.816 Y88.488 E0.02000
G1 X128.946 Y87.866 E0.01992
G1 X129.124 Y87.271 E0.01949
G1 X129.346 Y86.669 E0.02011
G1 X129.598 Y86.087 E0.01988
G1 X129.886 Y85.522 E0.01988
G1 X130.209 Y84.977 E0.01987
G1 X130.565 Y84.452 E0.01987
G1 X130.954 Y83.952 E0.01987
G1 X131.373 Y83.476 E0.01987
G1 X131.821 Y83.028 E0.01987
G1 X132.297 Y82.609 E0.01987
G1 X132.797 Y82.220 E0.01987
G1 X133.322 Y81.864 E0.01987
G1 X133.867 Y81.541 E0.01987
G1 X134.432 Y81.253 E0.01987
G1 X135.014 Y81.002 E0.01987
G1 X135.610 Y80.787 E0.01987
G1 X136.219 Y80.610 E0.01987
G1 X136.837 Y80.472 E0.01987
G1 X137.462 Y80.373 E0.01984
G1 X138.094 Y80.313 E0.01991
G1 X138.729 Y80.293 E0.01991
G1 X139.362 Y80.313 E0.01984
G1 X139.993 Y80.373 E0.01987
G1 X140.619 Y80.472 E0.01987
G1 X141.237 Y80.610 E0.01987
G1 X141.846 Y80.787 E0.01987
G1 X142.442 Y81.002 E0.01987
G1 X143.024 Y81.253 E0.01987
G1 X143.589 Y81.541 E0.01987
G1 X144.134 Y81.864 E0.01987
G1 X144.659 Y82.220 E0.01987
G1 X145.160 Y82.609 E0.01987
G1 X145.635 Y83.028 E0.01987
G1 X146.083 Y83.476 E0.01987
G1 X146.502 Y83.952 E0.01987
G1 X146.891 Y84.452 E0.01987
G1 X147.247 Y84.977 E0.01987
G1 X147.570 Y85.522 E0.01987
G1 X147.858 Y86.087 E0.01988
G1 X148.110 Y86.669 E0.01989
G1 X148.430 Y87.564 E0.02982
G1 X148.640 Y88.491 E0.02979
G1 X148.738 Y89.118 E0.01990
G1 X148.798 Y89.749 E0.01988
G1 X148.818 Y90.383 E0.01987
G1 X148.798 Y91.017 E0.01987
G1 X148.738 Y91.648 E0.01988
G1 X148.640 Y92.277 E0.01996
G1 X148.510 Y92.900 E0.01995
G1 X148.332 Y93.495 E0.01949
G1 X148.110 Y94.096 E0.02008
G1 X147.858 Y94.679 E0.01992
G1 X147.570 Y95.244 E0.01988
G1 X147.247 Y95.789 E0.01987
G1 X146.891 Y96.314 E0.01987
G1 X146.502 Y96.815 E0.01990
G1 X145.645 Y97.801 E0.04095
G1 X145.268 Y98.326 E0.02027
G1 X144.938 Y98.582 E0.01310
G1 X144.938 Y98.281 E0.00945
G1 X145.113 Y97.620 E0.02144
G1 X145.176 Y97.165 F10800.000
G1 X145.365 Y97.727
G1 F1200.000
G1 X145.499 Y97.453 E0.00532
G1 X145.365 Y97.727 F10800.000
G1 F1200.000
G1 X145.317 Y97.830 E0.00158
G1 X145.268 Y97.932 E0.00121
G1 X145.220 Y98.035 E0.00084
G1 F8640.000
G1 X145.268 Y97.932 E-0.02624
G1 E-0.77376 F2100.00000
G1 Z0.800 F10800.000
G1 X143.628 Y96.174
G1 Z0.200
G1 E0.80000 F2100.00000
G1 F1200.000
G1 X144.280 Y96.825 E0.03079
G1 X144.903 Y96.880 E0.02090
G1 X143.798 Y95.775 E0.05221
G1 X143.798 Y95.207 E0.01899
G1 X145.525 Y96.934 E0.08162
G1 X145.789 Y96.629 E0.01346
G1 X143.798 Y94.638 E0.09411
G1 X143.798 Y94.070 E0.01899
G1 X146.050 Y96.322 E0.10642
G1 X146.298 Y96.001 E0.01354
G1 X144.249 Y93.952 E0.09685
G1 X144.817 Y93.952 E0.01899
G1 X146.532 Y95.667 E0.08106
G1 X146.756 Y95.323 E0.01373
G1 X145.385 Y93.952 E0.06480
G1 X145.953 Y93.952 E0.01899
G1 X146.967 Y94.966 E0.04792
G1 X147.162 Y94.592 E0.01409
G1 X146.522 Y93.952 E0.03024
G1 X147.084 Y93.946 E0.01880
G1 X147.473 Y94.334 E0.01836
G1 F8640.000
G1 X147.084 Y93.946 E-0.12689
G1 X146.522 Y93.952 E-0.12987
G1 X147.162 Y94.592 E-0.20893
G1 X146.967 Y94.966 E-0.09736
G1 X146.364 Y94.363 E-0.19696
G1 E-0.04000 F2100.00000
G1 Z0.800 F10800.000
G1 X148.331 Y92.721
G1 Z0.200
G1 E0.80000 F2100.00000
G1 F1200.000
G1 X148.410 Y91.920 E0.00644
G1 X148.468 Y90.996 E0.01790
G1 X148.476 Y90.383 E0.01185
G1 X148.465 Y89.770 E0.01184
G1 X148.409 Y88.848 E0.01786
G1 X148.384 Y88.540 E0.00491
G1 X148.357 Y88.310 E0.00280
G1 X148.330 Y88.079 E0.00189
G1 F8640.000
G1 X148.357 Y88.310 E-0.05356
G1 E-0.74644 F2100.00000
G1 Z0.800 F10800.000
G1 X146.664 Y84.991
G1 Z0.200
G1 E0.80000 F2100.00000
G1 F1200.000
G1 X145.178 Y83.505 E0.06604
G1 X144.739 Y83.117 E0.01839
G1 X144.271 Y82.754 E0.01861
G1 X143.781 Y82.421 E0.01861
G1 X143.246 Y82.107 E0.01948
G1 X147.004 Y85.865 E0.16696
G1 X147.260 Y86.368 E0.01775
G1 X147.460 Y86.830 E0.01581
G1 X147.434 Y86.830 E0.00082
G1 X142.236 Y81.632 E0.23097
G1 X141.421 Y81.351 E0.02709
G1 X146.895 Y86.824 E0.24321
G1 X146.355 Y86.819 E0.01695
G1 X140.703 Y81.167 E0.25114
G1 X140.052 Y81.050 E0.02078
G1 X145.815 Y86.814 E0.25609
G1 X145.280 Y86.813 E0.01681
G1 X139.452 Y80.984 E0.25898
G1 X138.891 Y80.959 E0.01762
G1 X144.746 Y86.813 E0.26013
G1 X144.212 Y86.813 E0.01679
G1 X138.363 Y80.965 E0.25985
G1 X138.136 Y80.972 E0.00715
G1 X137.862 Y80.998 E0.00865
G1 X143.677 Y86.813 E0.25838
G1 X143.143 Y86.813 E0.01679
G1 X137.383 Y81.054 E0.25591
G1 X136.924 Y81.129 E0.01462
G1 X142.608 Y86.813 E0.25257
G1 X142.074 Y86.813 E0.01679
G1 X136.487 Y81.226 E0.24823
G1 X136.068 Y81.341 E0.01366
G1 X141.540 Y86.813 E0.24313
G1 X141.005 Y86.813 E0.01679
G1 X135.662 Y81.470 E0.23742
G1 X135.269 Y81.611 E0.01312
G1 X140.471 Y86.813 E0.23114
G1 X139.937 Y86.813 E0.01679
G1 X134.895 Y81.772 E0.22399
G1 X134.532 Y81.943 E0.01262
G1 X139.402 Y86.813 E0.21639
G1 X138.868 Y86.813 E0.01679
G1 X134.179 Y82.124 E0.20836
G1 X133.843 Y82.322 E0.01226
G1 X138.334 Y86.813 E0.19954
G1 X137.799 Y86.813 E0.01679
G1 X133.516 Y82.530 E0.19032
G1 X133.198 Y82.746 E0.01209
G1 X137.265 Y86.813 E0.18072
G1 X136.731 Y86.813 E0.01679
G1 X132.896 Y82.979 E0.17037
G1 X132.602 Y83.219 E0.01193
G1 X136.196 Y86.813 E0.15970
G1 X135.662 Y86.813 E0.01679
G1 X132.318 Y83.469 E0.14857
G1 X132.048 Y83.734 E0.01187
G1 X135.127 Y86.813 E0.13682
G1 X134.593 Y86.813 E0.01679
G1 X131.786 Y84.006 E0.12474
G1 X131.535 Y84.290 E0.01189
G1 X134.059 Y86.813 E0.11212
G1 X133.524 Y86.813 E0.01679
G1 X131.297 Y84.586 E0.09897
G1 X131.066 Y84.889 E0.01198
G1 X132.990 Y86.813 E0.08548
G1 X132.456 Y86.813 E0.01679
G1 X130.850 Y85.207 E0.07135
G1 X130.645 Y85.536 E0.01218
G1 X131.921 Y86.813 E0.05673
G1 X131.387 Y86.813 E0.01679
G1 X130.448 Y85.874 E0.04174
G1 X130.267 Y86.228 E0.01248
G1 X130.857 Y86.818 E0.02621
G1 X130.329 Y86.824 E0.01658
G1 X129.972 Y86.467 E0.01588
G1 F8640.000
G1 X130.329 Y86.824 E-0.11673
G1 X130.857 Y86.818 E-0.12186
G1 X130.267 Y86.228 E-0.19263
G1 X130.448 Y85.874 E-0.09174
G1 X131.174 Y86.600 E-0.23703
G1 E-0.04000 F2100.00000
G1 Z0.800 F10800.000
G1 X129.125 Y88.045
G1 Z0.200
G1 E0.80000 F2100.00000
G1 F1200.000
G1 X129.046 Y88.845 E0.00643
G1 X128.988 Y89.770 E0.01791
G1 X128.980 Y90.383 E0.01185
G1 X128.992 Y90.996 E0.01184
G1 X129.048 Y91.918 E0.01786
G1 X129.073 Y92.226 E0.00491
G1 X129.099 Y92.456 E0.00280
G1 X129.126 Y92.687 E0.00189
G1 F8640.000
G1 X129.099 Y92.456 E-0.05356
G1 E-0.74644 F2100.00000
G1 Z0.800 F10800.000
G1 X133.828 Y94.243
G1 Z0.200
G1 E0.80000 F2100.00000
G1 F1200.000
G1 X133.538 Y93.952 E0.01377
G1 X132.967 Y93.952 E0.01915
G1 X133.658 Y94.643 E0.03280
G1 X133.658 Y95.214 E0.01914
G1 X132.396 Y93.952 E0.05988
G1 X131.825 Y93.952 E0.01915
G1 X133.658 Y95.785 E0.08696
G1 X133.658 Y96.355 E0.01914
G1 X131.255 Y93.952 E0.11404
G1 X130.683 Y93.951 E0.01917
G1 X133.553 Y96.821 E0.13618
G1 X133.002 Y96.840 E0.01851
G1 X130.103 Y93.941 E0.13756
G1 X129.997 Y93.939 E0.00355
G1 X130.196 Y94.398 E0.01676
G1 X130.411 Y94.820 E0.01590
G1 X132.477 Y96.886 E0.09805
G1 X131.953 Y96.932 E0.01767
G1 X130.784 Y95.764 E0.05545
G1 F8640.000
G1 X131.953 Y96.932 E-0.38160
G1 X132.477 Y96.886 E-0.12160
G1 X131.691 Y96.100 E-0.25680
G1 E-0.04000 F2100.00000
G1 Z0.800 F10800.000
G1 X131.948 Y97.431
G1 Z0.200
G1 E0.80000 F2100.00000
G1 F1200.000
G1 X132.093 Y97.731 E0.00565
G1 X132.236 Y98.035 E0.00247
M106 S255
;BEFORE_LAYER_CHANGE
G92 E0.0
;0.4


G1 F8640.000
G1 X132.093 Y97.731 E-0.07754
G1 E-0.72246 F2100.00000
G1 Z0.800 F10800.000
;AFTER_LAYER_CHANGE
;0.4
M104 S210 ; set temperature
G1 X131.999 Y101.650
G1 Z0.400
G1 E0.80000 F2100.00000
G1 F2415
G1 X131.294 Y101.346 E0.02409
G1 X130.310 Y100.620 E0.03833
G1 X129.603 Y99.994 E0.02960
G1 X128.569 Y98.894 E0.04734
